icons/svg/currency-btc.svg

﻿<?xml version="1.0" encoding="utf-8"?>
<!DOCTYPE svg PUBLIC "-//W3C//DTD SVG 1.1//EN" "http://www.w3.org/Graphics/SVG/1.1/DTD/svg11.dtd">
<svg xmlns="http://www.w3.org/2000/svg" xmlns:xlink="http://www.w3.org/1999/xlink" version="1.1" baseProfile="full" width="24" height="24" viewBox="0 0 24.00 24.00" enable-background="new 0 0 24.00 24.00" xml:space="preserve">
	<path fill="#000000" fill-opacity="1" stroke-linejoin="round" d="M 4.5,5L 8,5L 8,2L 10,2L 10,5L 11.5,5L 11.5,2.00001L 13.5,2.00001L 13.5,5.00001C 19,5 19,11 16,11.25C 20,11 21,19 13.5,19L 13.5,22L 11.5,22L 11.5,19L 10,19L 10,22L 8,22L 8,19L 4.5,19L 5,17L 6,17C 6.55228,17 7,16.5523 7,16L 7,8C 7,7.44772 6.55228,7 6,7L 4.5,7L 4.5,5 Z M 10,7L 10,11C 10,11 14.5,11.25 14.5,9.00003C 14.5,6.75002 10,7.00001 10,7 Z M 10,12.5L 10,16.9961C 10,16.9961 15.5,17 15.5,14.75C 15.5,12.5 9.99999,12.5 10,12.5 Z "/>
</svg>

<svg xmlns="http://www.w3.org/2000/svg" version="1.1" baseProfile="full" width="24" height="24" viewBox="0 0 24.00 24.00" xml:space="preserve"><path fill="#000" fill-opacity="1" stroke-linejoin="round" d="M4.5 5H8V2h2v3h1.5V2h2v3C19 5 19 11 16 11.25 20 11 21 19 13.5 19v3h-2v-3H10v3H8v-3H4.5l.5-2h1c.552 0 1-.448 1-1V8c0-.552-.448-1-1-1H4.5V5zM10 7v4s4.5.25 4.5-2S10 7 10 7zm0 5.5v4.496s5.5.004 5.5-2.246S10 12.5 10 12.5z"/></svg>
